src/Mint-Y/metacity-1/unstick-icon.svg

<?xml version="1.0" encoding="UTF-8" standalone="no"?>
<svg
   width="16"
   height="16"
   version="1.1"
   viewBox="0 0 16 16"
   xml:space="preserve"
   id="svg1353"
   sodipodi:docname="unstick-icon.svg"
   inkscape:version="1.1.1 (1:1.1+202109281949+c3084ef5ed)"
   xmlns:inkscape="http://www.inkscape.org/namespaces/inkscape"
   xmlns:sodipodi="http://sodipodi.sourceforge.net/DTD/sodipodi-0.dtd"
   xmlns="http://www.w3.org/2000/svg"
   xmlns:svg="http://www.w3.org/2000/svg"><defs
     id="defs1357" /><sodipodi:namedview
     id="namedview1355"
     pagecolor="#ffffff"
     bordercolor="#666666"
     borderopacity="1.0"
     inkscape:pageshadow="2"
     inkscape:pageopacity="0.0"
     inkscape:pagecheckerboard="0"
     showgrid="false"
     inkscape:zoom="46.4375"
     inkscape:cx="5.5666218"
     inkscape:cy="8"
     inkscape:window-width="1920"
     inkscape:window-height="1017"
     inkscape:window-x="0"
     inkscape:window-y="0"
     inkscape:window-maximized="1"
     inkscape:current-layer="svg1353" /><rect
     style="fill:none;stroke-width:0;stroke-miterlimit:4;stroke-dasharray:none;stroke:none"
     id="rect1438"
     width="16"
     height="16"
     x="0"
     y="0" /><path
     d="M 10,3 7.2382812,4.8417969 10.361328,7.9648438 15,7.5175781 10,7 Z M 4.59375,4.1992188 10,9.6035156 V 9.3964844 L 4.90625,4.3027344 Z M 4,5.3964844 V 11 l 3,-1 3,2 v -0.603516 z"
     fill="#808080"
     id="path1349" /><path
     d="M 4.39602,3 12.5,11.10398 11.60398,12 3.5,3.89602 Z"
     fill="#808080"
     id="path1351" /></svg>

<?xml version="1.0" encoding="UTF-8"?>
<svg width="16" height="16" version="1.1" viewBox="0 0 16 16" xml:space="preserve" xmlns="http://www.w3.org/2000/svg"><rect width="16" height="16" fill="none"/><path d="m10 3-2.7617 1.8418 3.123 3.123 4.6387-0.44727-5-0.51758zm-5.4062 1.1992 5.4062 5.4043v-0.20703l-5.0938-5.0938zm-0.59375 1.1973v5.6035l3-1 3 2v-0.60352z" fill="#808080"/><path d="m4.396 3 8.104 8.104-0.89602 0.89602-8.104-8.104z" fill="#808080"/></svg>
